X:93
T: Graf und Nonne (Die Nonne)
N: Q0155d
O: Mitteleuropa, Deutschland (BRD) , Franken
R: Ballade, Standesunterschied, vergebliche Werbung, Liebe, Klage
M: 2/4
L: 1/16
K: G
D2 | G2G2d2B2 | B3AA2
cB | B2cAG2F2 | G4z2
D2 | G2G2d2B2 | B3AA2
cB | B2cAG2F2 | G4z2
G2 | G2B2d2d2 | d3gg4
c4c2e2 | d4e2
dc | B2B2c2A2 | A4G2